X:1
T:Khvalitye imya Gospodie
T:П. И. Чаиковский, 1878
T:Attributed to John Chrysostom, c. 349-407 AD
T:Верую
T:Литургиа Святого Иоанна Златоуста , Op. 41, No. 8
T:Public Domain
T:Public Domain
T:Public Domain
T:Public Domain
T:Public Domain
T:Public Domain
T:Public Domain
C:Sergei Rakhmanninov
Z:Public Domain
%%score [ 1 2 3 4 ]
L:1/8
Q:1/4=120
M:4/4
K:C
V:1 treble nm="Сопраны" snm="С"
V:2 treble nm="Альты" snm="А"
V:3 treble-8 nm="Теноры" snm="Т"
V:4 bass nm="Бассы" snm="Б"
V:1
"^Довольно скоро\nModerately fast"!f!"^Ве   –   ру  –  ю              во – е   – ди – на–го   Бо – га   От  –  ца,  Все-дер-жи-тел-я,  Твор-ца    не–бу     и  зем–ли,""^Ve   –    ru  –  yu            vo – ye – di  – na–vo   Bo – ga   Ot  –  tsa,  Vsye-der-zhi-tel-ya, Tvor-tsa    ne–bu     i   zem– li," c6 c2 | %1
 c4 z2 cc | c2 cc c2 cc | [cg]4 c2 d2 | e2 d2 e2 f2 | g4 e2 f2 | d2 e2 c4 | %7
"^ви-ди-мым же всем и не–ви–ди – мым.                 И     во–е – ди  –  на –го     Гос  –  по – да  И – и   –   су  – са Хри-ста  Сы-на""^vi–di–mym zhe vsyem i ne–vi–di – mym.                   I      vo–ye–di   –  na –vo    Gos  –  po – da   I  –  i   –   su  – sa Khri-sta  Sy–na" c2 d2 B2 c2 | %8
 A2 dd c2 B2 | !fermata!c8 |!p! z ccc c2 cc | d3 A A2 cc | d2 AA A2 cc | %13
"^Бо    –    жи–я,  е – ди– но  – род – на–го,         И –же   от  От–ца    рож  –  ден – на–го         пре – жде  всех  век.   Све–та   от""^Bo    –   zhi-ya, ye–di – no  –  rod – na–vo,         I – zhe  ot   Ot–tsa    rozh –  dyen–na–vo     pre-zhde  vsyekh vyek.  Svye-ta   ot" d3 A Accc | %14
 d3 A A4 | cccc c2 c2 | d3 A A4 | A4 ^G2 G2 | A4!mf! c2 cc | %19
"^Све–та, Бо–га     ис-тин-на          от    Бо–га      ис–тин–на, рож–ден–на,   не  со– тво – рен–на,    е – ди –но  –  сущ–на  От–""^Svye-ta, Bo–ga     is–tin –na           ot    Bo–ga       is– tin –na, rozh-dyen-na,   nye so–tvo – pyen-na,  ye– di – no–sushch-na Ot–" d4 A2 cc | %20
 cc c2 z ccc | d3 A A2 c2 | d2 A2 z ccc | d2 A2 z!f! ccc | f4 e2 d2 | %25
"^–цу,  Им – же  вся     бы    –    ша.        Hас       ра–ди  че – ло – век,    и    на – ше –го      ра – ди спа–се –ни–я  с шед-ша-го с не–""^–tsu, Im –zhe vsya    byi   –    sha.       Nas       ra – di  chye–lo – vek,    i     na – she–vo     ra –  di  spa–se–ni–ya s shed-sha-vo s nye–" c2 c4 _BB | %26
 A4 A4 |!p! A4 GGGG | A3 A A2 AA | G2 G!<(!G A2 AA!<)! |!mf! d2 A2 G2 A2 | %31
"^–бес,        и    во – пло–тив-ша-во-ся    от       Ду– ха    Свя–та,                и     Ма–ри   –  и       Де – вы,   и    во – че–ло –  веч   – ша –" B4 z BBB | %32
 B2 BB B2 B2 | A2 ^G2 A2 A2 | z2!mf! AA d3!>(! G!>)! | G2 G2!p! GGGA | ^F6 F2 | %37
"^– ся.            Рас  – пя  – та –го   же    за  –  ны  при Пон-тий-стем  Пи – ла – те,              и стра–дав – ша,                  и      по – гре –""^– sya.         Ras – pya – ta – vo  zhe   za  –  nyi  pri   Pon–tii–styem   Pi  –  la  – tye,             i  stra – dav – sha,                  i       po– grye–" G4 z2!ff! B2 | %38
 ^f2 BB B2 B2 | B2 BB B2 BB | d2 B2 z2 gg | ^f4 B4 | z2 g2 g2 g2 | %43
"^–бен–на,        и  вос-крес-ша-го в тре–тий день по  пи–са  –  ни   –  ем.     И     воз –шед –ша–го   на    не–бе  –  са,    и      се –""^–ben–na,        i   vos-kres-sha-vo v trye–tii     den'  po   pi –sa  –  ni    – yem.     I      voz–shed–sha-vo    na   nye–be – sa,     i      sye–" ^f2 B2 z2 ff | %44
 e2 ee d2 d2 | ^c2 BB!<(! B2 ^A2!<)! | B4!fff! B2 A2 | d3 d de^fg | a4 B2 A2 | %49
"^–дя –ща            о  –  дес – ны – ю    От – ца. ____________           И         па  –  ки     гря   –  ду – ща–го     со    –   сла – во–ю      су –""^–dya–shcha      o  – dyes –nyi– yu   Ot  – tsa. ____________           I           pa  –  ki      grya – du-shcha-vo    so    –  sla   – vo–yu    su –" d2 d2 z2 de | %50
 ^f2 fg a4- ||[M:3/4]"^Таже скорость\nSame speed" a2!mf! z2 ^f2 | g2 ^f2 e2 | d>d d2 e2 | %54
 ^c>c c2 d2 | %55
"^–ди  –  ти  жи–вым  и    мерт–вым,  Е – го –же  царст–ви –ю      не         бу     –    дет  кон –  ца.       И   в  Ду   –  ха  свя–та –го,""^–di   –   ti  zhi –vyim  i    myert–vyim, Ye–vo–zhe tsarst– vi – yu     ne         bu    –   dyet  kon –  tsa.        I    v  Du  – kha svya-ta–vo," B2 BB ^cc | %56
 d2 dd dd | d>d d2 d2 |!>(! d4 ^cc!>)! | d4!p! A2 | c2 cc cc | %61
"^Го – спо–да,  жи–вот–во   –  ря  – ща– го,        И    –    же  от   От   –  ца  ис – хо  –   дя –  ща –го,         И – же   со    От–цем  и""^Go– spo–da,  zhi–vot–vo   –rya–shcha–vo,        I     –   zhe ot    Ot    – tsa   is –kho–dya–shcha–vo,         I  – zhe  co   Ot–tsem  i" cc cc cc | %62
 B3 B B2 | B3 B BB | B2 B2 B2 | A3 A A2 | AA AA AA | %67
"^Syi–nom s po–klo–nya  –   ye–ma   i     s  sla    –  vi –ma, gla – go   –   lav – sha – vo   pro  – ro  –  ki.        Vo – ye – di    –  nu   svya–""^Сы–ном с по–кло–ня   –    е – ма   и    с сла   –  ви–ма, гла – го   –   лав –ша – го   про – ро  – ки.      Во –  е  –  ди  –  ну      свя–" A2 A2 AA | %68
 G3 G GG | G3 G GG | G2 GG GG | G2 G2 GG | G2 G3 G | %73
"^–tu – yu     so   –    bor –nu –yu        i         A – po –stol' – sku–yu       Tser–kov.         Is – po  – vye–du–yu               ye –  di – no   krye–""^–ту – ю      со    –   бор–ну – ю         и       А  – по–столь–ску–ю       Цер–ков.        Ис –по  – ве – ду  – ю               е  –  ди – но    кре–" G2 G3 G | %74
 G3 G G2 | GG GG GG | A4 A2 | z2 A2 A2 | F3 F F2 | z F F2 FF | %80
"^–ще –ни – е                во   ос – тав – ле   –   ни – е      гре – хов.          Ча – ю     вос– кре –се  – ни – я     мерт–вых,       и     жиз–ни""^–shchye–ni–ye               vo   os – tav – lye   –   ni – ye   grye–khov.         Cha–yu   vos–krye–sye– ni – ya   myert–vyikh,    i     zhiz –ni" E3 E E2 | %81
 z2 E2 EE | E3 E EE | E4 z2 |!p! E2!<(! E2 EE!<)! | E3 E E2 |!mf! A2 E2 z2 |!p! E2 E3 E | %88
"^бу   –    ду – ща – го       ве– ка.             А      –     минь.""^bu   –  du–shcha–vo     vye–ka.             A     –     min'." E3 E EE | %89
 E2 E2 z2 |!pp! G6 | !fermata!G6 |] %92
V:2
!f! G6 G2 | G4 z2 GG | A2 AA A2 FF | G4 G2 G2 | G2 G2 G2 A2 | c4 G2 c2 | F2 B2 E4 | E2 A2 D2 G2 | %8
 C2 FF G2 G2 | !fermata!G8 |!p! z EEE E2 EE | F3 E E2 EE | F2 EE E2 EE | F3 E EEEE | F3 E E4 | %15
 EEEE E2 E2 | F3 E E4 | F4 E2 E2 | E4!mf! F2 FF | F4 F2 FF | FF F2 z FFF | F3 F F2 F2 | %22
 F2 F2 z FFF | F2 F2 z!f! FFF | _B4 c2 B2 | A2 A4 GG | E4 F4 |!p! F4 EEEE | F3 F F2 FF | %29
 E2 E!<(!E F2 FF!<)! |!mf! A2 F2 F2 F2 | F4 z FFF | E2 EE E2 E2 | E2 E2 E2 E2 | %34
 z2!mf! ^FF G3!>(! E!>)! | E2 E2!p! EEEE | D6 D2 | D4 z2!ff! E2 | B2 ^FF F2 F2 | E2 EE G2 GG | %40
 ^F2 F2 z2 BB | B4 ^F4 | z2 B2 B2 B2 | B2 ^F2 z2 BB | B2 AA A2 G2 | G2 ^FF!<(! G2 F2!<)! | %46
 ^F4!fff! G2 E2 | A3 A AAAd | d4 D2 E2 | A2 A2 z2 AA | A2 dd d4- ||[M:3/4] d2 z2!mf! A2 | %52
 G2 A2 A2 | F>F F2 B2 | A>A A2 A2 | G2 GG GG | ^F2 FF FF | G>G ^F2 E2 |!>(! ^F4 EE!>)! | %59
 ^F4!p! F2 | ^F2 FF FF | ^FF FF FF | ^F3 F F2 | ^F3 F FF | ^F2 F2 F2 | ^F3 F F2 | ^FF FF FF | %67
 ^F2 F2 FF | E3 E EE | D3 D DD | C2 CC B,B, | C2 C2 CC | C2 C3 C | C2 C3 C | ^C3 C C2 | ^CC CC CC | %76
 D4 D2 | z2 D2 D2 | C3 C C2 | z B, B,2 B,B, | C3 C C2 | z2 C2 CC | C3 C CC | C4 z2 | %84
!p!!<(! C2 C2 CC!<)! | C3 C C2 |!mf! E2 C2 z2 |!p! C2 C3 C | C3 C CC | C2 C2 z2 |!pp! [B,D]6 | %91
 !fermata!C6 |] %92
V:3
!f!"^Ve   –    ru  –  yu            vo – ye – di  – na–vo   Bo – ga   Ot  –  tsa,  Vsye-der-zhi-tel-ya, Tvor-tsa    ne–bu     i   zem– li,""^Ве   –   ру  –  ю              во – е   – ди – на–го   Бо – га   От  –  ца,  Все-дер-жи-тел-я,  Твор-ца    не–бу     и  зем–ли," e6 e2 | %1
 e4 z2 ee | e2 ee f2 AA | c4 c2 B2 | c2 B2 c2 c2 | e4 c2 f2 | B2 e2 A4 | %7
"^ви-ди-мым же всем и не–ви–ди – мым.                 И     во–е – ди  –  на –го     Гос  –  по – да  И – и   –   су  – са Хри-ста  Сы-на""^vi–di–mym zhe vsyem i ne–vi–di – mym.                   I      vo–ye–di   –  na –vo    Gos  –  po – da   I  –  i   –   su  – sa Khri-sta  Sy–na" A2 d2 G2 c2 | %8
 F2 AA c2 d2 | !fermata!e8 |!p! z AAA A2 AA | A3 c c2 AA | A2 cc c2 AA | %13
"^Бо    –    жи–я,  е – ди– но  – род – на–го,         И –же   от  От–ца    рож  –  ден – на–го         пре – жде  всех  век.   Све–та   от""^Bo    –   zhi-ya, ye–di – no  –  rod – na–vo,         I – zhe  ot   Ot–tsa    rozh –  dyen–na–vo     pre-zhde  vsyekh vyek.  Svye-ta   ot" A3 c cAAA | %14
 A3 c c4 | AAAA A2 A2 | A3 c c4 | B4 B2 B2 | c4!mf! A2 AA | %19
"^Све–та, Бо–га     ис-тин-на          от    Бо–га      ис–тин–на, рож–ден–на,   не  со– тво – рен–на,    е – ди –но  –  сущ–на  От–""^Svye-ta, Bo–ga     is–tin –na           ot    Bo–ga       is– tin –na, rozh-dyen-na,   nye so–tvo – pyen-na,  ye– di – no–sushch-na Ot–" _B4 c2 AA | %20
 AA A2 z AAA | _B3 c c2 A2 | _B2 c2 z AAA | _B2 c2 z!f! AAA | f4 f2 f2 | %25
"^–цу,  Им – же  вся     бы    –    ша.        Hас       ра–ди  че – ло – век,    и    на – ше –го      ра – ди спа–се –ни–я  с шед-ша-го с не–""^–tsu, Im –zhe vsya    byi   –    sha.       Nas       ra – di  chye–lo – vek,    i     na – she–vo     ra –  di  spa–se–ni–ya s shed-sha-vo s nye–" f2 _e4 dd | %26
 (d2 ^c2) d4 |!p! d4 dddd | d3 d d2 dd | d2 d!<(!d d2 dd!<)! |!mf! f2 d2 d2 d2 | d4 z ddd | %32
 d2 dd d2 d2 | c2 d2 e2 e2 | z2!mf! dd d3!>(! B!>)! | B2 B2!p! BBBA | A6 A2 | %37
"^– ся.            Рас  – пя  – та –го   же    за  –  ны  при Пон-тий-стем  Пи – ла – те,              и стра–дав – ша,                  и      по – гре –""^– sya.         Ras – pya – ta – vo  zhe   za  –  nyi  pri   Pon–tii–styem   Pi  –  la  – tye,             i  stra – dav – sha,                  i       po– grye–" B4 z2!ff! ^c2 | %38
 d2 dd d2 d2 | ^c2 cc c2 cc | B2 d2 z2 ^cc | d4 d4 | z2 ^c2 c2 c2 | %43
"^–бен–на,        и  вос-крес-ша-го в тре–тий день по  пи–са  –  ни   –  ем.     И     воз –шед –ша–го   на    не–бе  –  са,    и      се –""^–ben–na,        i   vos-kres-sha-vo v trye–tii     den'  po   pi –sa  –  ni    – yem.     I      voz–shed–sha-vo    na   nye–be – sa,     i      sye–" d2 d2 z2 dd | %44
 d2 ^cc d2 B2 | ^c2 dd!<(! e2 c2!<)! | d4!fff! d2 ^c2 | d3 d d^cde | ^f4 B2 ^c2 | %49
"^–дя –ща            о  –  дес – ны – ю    От – ца. ____________           И         па  –  ки     гря   –  ду – ща–го     со    –   сла – во–ю      су –""^–dya–shcha      o  – dyes –nyi– yu   Ot  – tsa. ____________           I           pa  –  ki      grya – du-shcha-vo    so    –  sla   – vo–yu    su –" d2 d2 z2 d^c | %50
 d2 de ^f4- ||[M:3/4] f2!mf! z2 d2 | d2 d2 ^c2 | B>B B2 e2 | e>e e2 d2 | %55
"^–ди  –  ти  жи–вым  и    мерт–вым,  Е – го –же  царст–ви –ю      не         бу     –    дет  кон –  ца.       И   в  Ду   –  ха  свя–та –го,""^–di   –   ti  zhi –vyim  i    myert–vyim, Ye–vo–zhe tsarst– vi – yu     ne         bu    –   dyet  kon –  tsa.        I    v  Du  – kha svya-ta–vo," d2 dd AA | %56
 A2 AA AA | G>G A2 B2 |!>(! A4 AA!>)! | A4!p! d2 | A2 AA AA | %61
"^Go– spo–da,  zhi–vot–vo   –rya–shcha–vo,        I     –   zhe ot    Ot    – tsa   is –kho–dya–shcha–vo,         I  – zhe  co   Ot–tsem  i""^Го – спо–да,  жи–вот–во   –  ря  – ща– го,        И    –    же  от   От   –  ца  ис – хо  –   дя –  ща –го,         И – же   со    От–цем  и" AA AA AA | %62
 B3 B B2 | B3 B BB | B2 B2 B2 | c3 c c2 | cc cc cc | %67
"^Сы–ном с по–кло–ня   –    е – ма   и    с сла   –  ви–ма, гла – го   –   лав –ша – го   про – ро  – ки.      Во –  е  –  ди  –  ну      свя–""^Syi–nom s po–klo–nya  –   ye–ma   i     s  sla    –  vi –ma, gla – go   –   lav – sha – vo   pro  – ro  –  ki.        Vo – ye – di    –  nu   svya–" B2 B2 BB | %68
 B3 B BB | B3 B BB | G2 GG FF | E2 E2 EE | E2 E3 E | %73
"^–ту – ю      со    –   бор–ну – ю         и       А  – по–столь–ску–ю       Цер–ков.        Ис –по  – ве – ду  – ю               е  –  ди – но    кре–""^–tu – yu     so   –    bor –nu –yu        i         A – po –stol' – sku–yu       Tser–kov.         Is – po  – vye–du–yu               ye –  di – no   krye–" E2 E3 E | %74
 E3 E E2 | EE EE EE | A4 A2 | z2 A2 A2 | _A3 A A2 | z G G2 GG | %80
"^–ще –ни – е                во   ос – тав – ле   –   ни – е      гре – хов.          Ча – ю     вос– кре –се  – ни – я     мерт–вых,       и     жиз–ни""^–shchye–ni–ye               vo   os – tav – lye   –   ni – ye   grye–khov.         Cha–yu   vos–krye–sye– ni – ya   myert–vyikh,    i     zhiz –ni" G3 G G2 | %81
 z2 G2 GG | G3 G GG | G4 z2 |!p!!<(! A2 A2 AA!<)! | A3 A A2 |!mf! c2 A2 z2 |!p! A2 A3 A | %88
"^бу   –    ду – ща – го       ве– ка.             А      –     минь.""^bu   –  du–shcha–vo     vye–ka.             A     –     min'." A3 A AA | %89
 A2 A2 z2 |!pp! G6 | !fermata!G6 |] %92
V:4
!f! C6 C2 | C4 z2 CC | A,2 A,A, F,2 F,F, | [E,G,]4 E,2 G,2 | C2 G,2 C,2 F,2 | C4 B,2 A,2 | %6
 A,2 G,2 G,4 | G,2 F,2 F,2 E,2 | E,2 D,D, E,2 G,2 | !fermata!C8 |!p! z A,A,A, A,2 A,A, | %11
 D,3 A, A,2 A,A, | D,2 A,A, A,2 A,A, | D,3 A, A,A,A,A, | D,3 A, A,4 | A,A,A,A, A,2 A,2 | %16
 D,3 A, A,4 | D,4 E,2 E,2 | A,4!mf! F,2 F,F, | _B,,4 F,2 F,F, | F,F, F,2 z F,F,F, | %21
 _B,,3 F, F,2 F,2 | _B,,2 F,2 z F,F,F, | _B,,2 F,2!f! z F,F,F, | D4 A,2 _B,2 | F,2 ^F,4 G,G, | %26
 A,4 D,4 |!p! D4 _B,B,B,B, | D3 D D2 DD | _B,2 B,!<(!B, D2 DD!<)! |!mf! D2 C2 B,2 A,2 | %31
 G,4 z G,G,G, | ^G,2 G,G, G,2 G,2 | A,2 B,2 C2 C2 | z2!mf! CC B,3!>(! E,!>)! | %35
 E,2 E,2!p! E,E,E,C, | D,6 D,2 | G,4 z2!ff! G,2 | B,2 B,B, B,2 B,2 | G,2 G,G, E,2 E,E, | %40
 B,2 B,2 z2 E,E, | B,4 B,4 | z2 E,2 E,2 E,2 | B,2 B,2 z2 B,B, | G,2 A,A, ^F,2 G,2 | %45
 E,2 D,D,!<(! ^C,2 ^F,2!<)! | B,4!fff! G,2 G,2 | ^F,3 F, F,A,DD | D4 G,2 G,2 | ^F,2 F,2 z2 F,A, | %50
 D2 DD D4- ||[M:3/4] D2!mf! z2 D2 | B,2 D2 A,2 | B,>B, B,2 G,2 | A,>A, A,2 ^F,2 | G,2 G,G, E,E, | %56
 D,2 D,D, C,C, | B,,>B,, A,,2 G,,2 |!>(! A,,4 A,A,!>)! | D,4!p! D,2 | D,2 D,D, D,D, | %61
 D,D, D,D, D,D, | D,3 D, D,2 | D,3 D, D,D, | D,2 D,2 D,2 | D,3 D, D,2 | D,D, D,D, D,D, | %67
 ^D,2 D,2 D,D, | E,3 E, E,E, | F,3 F, F,F, | E,2 E,E, D,D, | C,2 C,2 C,C, | C,2 C,3 C, | %73
 _B,,2 B,,3 B,, | A,,3 A,, A,,2 | A,,A,, A,,A,, A,,A,, | D,4 D,2 | z2 D,2 D,2 | D,3 D, D,2 | %79
 z D, D,2 D,D, | C,3 C, C,2 | z2 C,2 C,C, | C,3 C, C,C, | C,4 z2 |!p!!<(! A,2 A,2 A,A,!<)! | %85
 A,3 A, A,2 |!mf! A,2 A,2 z2 |!p! ^F,2 F,3 F, | ^F,3 F, F,F, | ^F,2 F,2 z2 |!pp! [G,,F,]6 | %91
 !fermata![C,E,]6 |] %92

